assets/svg/icon_button_internet.svg

<svg width="24" height="24" viewBox="0 0 24 24" fill="none" xmlns="http://www.w3.org/2000/svg">
<path d="M20.8998 11.9901C20.8998 12.3215 21.1684 12.5901 21.4998 12.5901C21.8312 12.5901 22.0998 12.3215 22.0998 11.9901H20.8998ZM11.0434 21.4479V22.0479C11.2713 22.0479 11.4796 21.9188 11.5809 21.7146C11.6822 21.5105 11.6591 21.2665 11.5212 21.085L11.0434 21.4479ZM13.4222 2.16835C13.2218 1.90446 12.8454 1.85301 12.5815 2.05344C12.3176 2.25386 12.2662 2.63026 12.4666 2.89415L13.4222 2.16835ZM15.1961 11.9895C15.1961 12.3209 15.4648 12.5895 15.7961 12.5895C16.1275 12.5895 16.3961 12.3209 16.3961 11.9895H15.1961ZM11.5211 2.89415C11.7215 2.63026 11.67 2.25386 11.4061 2.05344C11.1422 1.85301 10.7659 1.90446 10.5654 2.16835L11.5211 2.89415ZM3.08691 14.7165C2.75554 14.7165 2.48691 14.9851 2.48691 15.3165C2.48691 15.6479 2.75554 15.9165 3.08691 15.9165V14.7165ZM11.9938 15.9165C12.3252 15.9165 12.5938 15.6479 12.5938 15.3165C12.5938 14.9851 12.3252 14.7165 11.9938 14.7165V15.9165ZM3.08691 8.06247C2.75554 8.06247 2.48691 8.3311 2.48691 8.66247C2.48691 8.99384 2.75554 9.26247 3.08691 9.26247V8.06247ZM20.9007 9.26247C21.2321 9.26247 21.5007 8.99384 21.5007 8.66247C21.5007 8.3311 21.2321 8.06247 20.9007 8.06247V9.26247ZM21.3852 17.6146L21.6997 17.1036L21.6996 17.1035L21.3852 17.6146ZM21.3425 18.6612L21.41 19.2574L21.4105 19.2573L21.3425 18.6612ZM17.8082 21.1355L17.2711 20.8681L17.2709 20.8686L17.8082 21.1355ZM16.8101 20.8181L16.2223 20.9387L16.2224 20.9391L16.8101 20.8181ZM15.6171 15.0043L16.2049 14.8837L16.2048 14.8831L15.6171 15.0043ZM16.3301 14.5053L16.0153 15.0161L16.0157 15.0163L16.3301 14.5053ZM19.4426 18.8766L19.5102 19.4727L19.4426 18.8766ZM18.66 19.4245L18.1229 19.1571L18.66 19.4245ZM22.0998 11.9901C22.0998 6.40874 17.5755 1.88437 11.994 1.88437V3.08438C16.9127 3.08438 20.8998 7.07148 20.8998 11.9901H22.0998ZM11.994 1.88437C6.41264 1.88437 1.88828 6.40874 1.88828 11.9901H3.08828C3.08828 7.07148 7.07538 3.08438 11.994 3.08438V1.88437ZM1.88828 11.9901C1.88828 17.4992 5.60065 22.0479 11.0434 22.0479V20.8479C6.39935 20.8479 3.08828 16.9811 3.08828 11.9901H1.88828ZM12.9444 2.53125C12.4666 2.89415 12.4665 2.89399 12.4664 2.89385C12.4663 2.89382 12.4662 2.89369 12.4662 2.89363C12.4661 2.89352 12.4661 2.89346 12.4661 2.89346C12.4661 2.89346 12.4662 2.89368 12.4666 2.89413C12.4672 2.89503 12.4686 2.89682 12.4706 2.89952C12.4746 2.9049 12.4812 2.91385 12.4902 2.92632C12.5082 2.95126 12.5359 2.99025 12.572 3.04286C12.6441 3.14809 12.7494 3.30765 12.8769 3.51803C13.132 3.93899 13.4753 4.56213 13.8194 5.35936C14.5081 6.95486 15.1961 9.23793 15.1961 11.9895H16.3961C16.3961 9.03759 15.6583 6.59154 14.9211 4.88379C14.5523 4.02939 14.1827 3.35736 13.9031 2.89607C13.7633 2.66532 13.6458 2.48699 13.5619 2.3646C13.52 2.30339 13.4864 2.25615 13.4627 2.2233C13.4508 2.20688 13.4414 2.19405 13.4346 2.18487C13.4312 2.18029 13.4284 2.17661 13.4264 2.17386C13.4253 2.17248 13.4245 2.17133 13.4238 2.17041C13.4234 2.16995 13.4231 2.16955 13.4229 2.16921C13.4227 2.16904 13.4226 2.16882 13.4225 2.16874C13.4223 2.16854 13.4222 2.16835 12.9444 2.53125ZM11.0434 21.4479C11.5212 21.085 11.5214 21.0852 11.5215 21.0853C11.5215 21.0853 11.5216 21.0855 11.5216 21.0855C11.5217 21.0856 11.5218 21.0857 11.5218 21.0857C11.5218 21.0857 11.5216 21.0855 11.5213 21.085C11.5206 21.0841 11.5192 21.0823 11.5172 21.0796C11.5132 21.0743 11.5067 21.0653 11.4976 21.0528C11.4796 21.0279 11.4519 20.9889 11.4158 20.9363C11.3437 20.8311 11.2384 20.6715 11.1109 20.4611C10.8558 20.0401 10.5125 19.417 10.1683 18.6197C9.47958 17.0242 8.79151 14.741 8.79151 11.9895H7.59151C7.59151 14.9414 8.32939 17.3875 9.0666 19.0953C9.43543 19.9497 9.80511 20.6218 10.0847 21.0831C10.2246 21.3138 10.3421 21.4922 10.4259 21.6146C10.4679 21.6758 10.5014 21.723 10.5251 21.7559C10.537 21.7723 10.5464 21.7851 10.5532 21.7943C10.5566 21.7989 10.5594 21.8026 10.5615 21.8053C10.5625 21.8067 10.5634 21.8078 10.5641 21.8088C10.5644 21.8092 10.5647 21.8096 10.565 21.81C10.5651 21.8101 10.5653 21.8103 10.5653 21.8104C10.5655 21.8106 10.5656 21.8108 11.0434 21.4479ZM8.79151 11.9895C8.79151 9.23793 9.47954 6.95486 10.1682 5.35936C10.5124 4.56213 10.8556 3.93899 11.1108 3.51803C11.2383 3.30765 11.3436 3.14809 11.4157 3.04286C11.4517 2.99025 11.4794 2.95126 11.4975 2.92632C11.5065 2.91385 11.5131 2.9049 11.5171 2.89952C11.5191 2.89682 11.5204 2.89503 11.5211 2.89413C11.5214 2.89368 11.5216 2.89346 11.5216 2.89346C11.5216 2.89346 11.5215 2.89352 11.5214 2.89363C11.5214 2.89369 11.5213 2.89382 11.5213 2.89385C11.5212 2.89399 11.5211 2.89415 11.0432 2.53125C10.5654 2.16835 10.5653 2.16854 10.5651 2.16874C10.5651 2.16882 10.5649 2.16904 10.5648 2.16921C10.5645 2.16955 10.5642 2.16995 10.5639 2.17041C10.5632 2.17133 10.5623 2.17248 10.5613 2.17386C10.5592 2.17661 10.5565 2.18029 10.5531 2.18487C10.5463 2.19405 10.5368 2.20688 10.525 2.2233C10.5012 2.25615 10.4677 2.30339 10.4257 2.3646C10.3419 2.48699 10.2244 2.66532 10.0845 2.89607C9.80497 3.35736 9.43531 4.02939 9.06651 4.88379C8.32935 6.59154 7.59151 9.03759 7.59151 11.9895H8.79151ZM3.08691 15.9165H11.9938V14.7165H3.08691V15.9165ZM3.08691 9.26247H20.9007V8.06247H3.08691V9.26247ZM21.0708 18.1256C21.0917 18.1385 21.1043 18.1538 21.112 18.1687C21.1161 18.1766 21.1187 18.1841 21.1201 18.1905C21.1209 18.1936 21.1212 18.1962 21.1214 18.1981C21.1216 18.1999 21.1215 18.2009 21.1215 18.2008C21.1215 18.2008 21.1216 18.1994 21.1221 18.1968C21.1226 18.1942 21.1235 18.1901 21.1254 18.1846C21.1292 18.1736 21.1372 18.1565 21.1528 18.1372C21.1689 18.1173 21.1904 18.0988 21.2157 18.085C21.2412 18.0712 21.2627 18.0664 21.2744 18.0651L21.4105 19.2573C22.0139 19.1884 22.3023 18.69 22.3205 18.2503C22.3381 17.8242 22.1274 17.3668 21.6997 17.1036L21.0708 18.1256ZM21.2749 18.065L19.375 18.2804L19.5102 19.4727L21.41 19.2574L21.2749 18.065ZM18.1229 19.1571L17.2711 20.8681L18.3453 21.4029L19.1971 19.6919L18.1229 19.1571ZM17.2709 20.8686C17.276 20.8583 17.2878 20.8398 17.3095 20.8205C17.3311 20.8013 17.356 20.7873 17.3804 20.7789C17.404 20.7707 17.4231 20.7691 17.4348 20.7692C17.4407 20.7693 17.445 20.7699 17.4476 20.7703C17.4503 20.7707 17.4516 20.7712 17.4517 20.7712C17.4518 20.7712 17.4509 20.7709 17.4491 20.7701C17.4474 20.7693 17.4451 20.7681 17.4424 20.7663C17.4368 20.7627 17.4306 20.7577 17.4245 20.751C17.4129 20.7384 17.4027 20.7212 17.3978 20.697L16.2224 20.9391C16.3237 21.4305 16.6811 21.7851 17.0875 21.9146C17.5075 22.0484 18.075 21.9472 18.3456 21.4025L17.2709 20.8686ZM17.3979 20.6974L16.2049 14.8837L15.0294 15.1249L16.2223 20.9387L17.3979 20.6974ZM16.2048 14.8831C16.2014 14.8668 16.2071 14.8765 16.1975 14.903C16.188 14.9294 16.1673 14.9601 16.1336 14.9837C16.0999 15.0073 16.064 15.0161 16.0362 15.016C16.0082 15.0159 16.0011 15.0073 16.0153 15.0161L16.6449 13.9945C16.27 13.7635 15.8071 13.7476 15.4457 14.0005C15.0842 14.2534 14.9405 14.694 15.0295 15.1255L16.2048 14.8831ZM16.0157 15.0163L21.0709 18.1257L21.6996 17.1035L16.6444 13.9942L16.0157 15.0163ZM19.375 18.2804C18.836 18.3415 18.3646 18.6715 18.1229 19.1571L19.1971 19.6919C19.2576 19.5705 19.3754 19.488 19.5102 19.4727L19.375 18.2804Z" fill="#494949"/>
</svg>

<svg xmlns="http://www.w3.org/2000/svg" width="24" height="24" fill="none"><path fill="#494949" d="M20.9 11.99a.6.6 0 1 0 1.2 0zm-9.857 9.458v.6a.6.6 0 0 0 .478-.963zm2.38-19.28a.6.6 0 1 0-.956.726zm1.773 9.822a.6.6 0 0 0 1.2 0zm-3.675-9.096a.6.6 0 0 0-.956-.726zM3.087 14.717a.6.6 0 1 0 0 1.2zm8.907 1.2a.6.6 0 1 0 0-1.2zM3.087 8.061a.6.6 0 0 0 0 1.2zm17.814 1.2a.6.6 0 1 0 0-1.2zm.484 8.353.315-.511zm-.043 1.046.068.596zm-3.534 2.474-.537-.267zm-.998-.317-.588.12v.001zm-1.193-5.814.588-.12zm.713-.499-.315.511zm3.113 4.372.067.596zm-.783.547-.537-.267zm3.44-7.434c0-5.581-4.524-10.106-10.106-10.106v1.2A8.906 8.906 0 0 1 20.9 11.99zM11.994 1.884C6.413 1.884 1.888 6.41 1.888 11.99h1.2a8.906 8.906 0 0 1 8.906-8.906zM1.888 11.99c0 5.51 3.713 10.058 9.155 10.058v-1.2c-4.644 0-7.955-3.867-7.955-8.858zm11.056-9.459-.478.363.005.006.02.026.081.117c.072.105.177.265.305.475.255.421.598 1.044.942 1.841a16.8 16.8 0 0 1 1.377 6.63h1.2a18 18 0 0 0-1.475-7.105 16 16 0 0 0-1.018-1.988 11 11 0 0 0-.468-.711l-.009-.011-.002-.004h-.001v-.001zm-1.9 18.917.477-.363-.004-.005-.02-.027-.081-.117a10 10 0 0 1-.305-.475 15 15 0 0 1-.943-1.841 16.8 16.8 0 0 1-1.376-6.63h-1.2c0 2.951.737 5.397 1.475 7.105.368.855.738 1.527 1.018 1.988a12 12 0 0 0 .476.722l.003.004.001.001zM8.791 11.99c0-2.752.688-5.035 1.376-6.63.344-.798.688-1.421.943-1.842a10 10 0 0 1 .406-.618l.004-.006-.478-.363-.478-.362-.001.001-.003.004-.008.01-.028.04-.1.14c-.083.123-.2.301-.34.532a16 16 0 0 0-1.018 1.988 18 18 0 0 0-1.475 7.105zm-5.705 3.926h8.907v-1.2H3.087zm0-6.654H20.9v-1.2H3.087zm17.984 8.864a.1.1 0 0 1 .041.043.1.1 0 0 1 .01.03v.002-.004l.003-.012a.2.2 0 0 1 .028-.048.2.2 0 0 1 .063-.052.2.2 0 0 1 .058-.02l.136 1.192c.604-.069.892-.567.91-1.007a1.3 1.3 0 0 0-.62-1.146zm.204-.061-1.9.215.135 1.193 1.9-.216zm-3.152 1.092-.852 1.711 1.074.535.852-1.711zm-.852 1.712a.2.2 0 0 1 .038-.049.2.2 0 0 1 .071-.041.2.2 0 0 1 .068-.009l.004.001h-.003l-.007-.005-.018-.015a.1.1 0 0 1-.026-.054l-1.176.242c.102.491.46.846.865.976.42.133.988.032 1.259-.512zm.127-.172-1.193-5.813-1.176.24 1.193 5.815zm-1.193-5.814c-.004-.016.002-.006-.007.02a.17.17 0 0 1-.064.08.17.17 0 0 1-.098.033c-.028 0-.035-.009-.02 0l.629-1.021c-.375-.231-.838-.247-1.2.006-.36.252-.505.693-.415 1.125zm-.19.133 5.056 3.11.629-1.023-5.056-3.109zm3.36 3.264a1.6 1.6 0 0 0-1.252.877l1.074.535a.4.4 0 0 1 .313-.22z"/></svg>
